X: 19084
T: Irish Girl, The
R: reel
M: 4/4
K: Dmajor
|:FD (3FED DFAF|ED (3CB,A, A,CEG|FD (3FED DFAg|fgec dBAG|
FD(3FED DFAF|ED(3CB,A, A,CEG|FD(3FED DFAg|1 fgec d2AG:|2 fgec d2de||
|:fdd/d/d fdaf|ed(3cBA Aceg|fdd/d/d dfag|fgec dfag|
fdd/d/d fdaf|ed(3cBA Aceg|fedf {a}gfec|1 dfec dfag:|2 dfec dBAG||

